X:1
T:St. Catherine’s Court, 12.11.12.11
T:St. Catherine’s Court, 12.11.12.11
T:Richard Strutt, 1925
C:Richard Strutt, 1925
%%score ( 1 2 ) ( 3 4 )
L:1/8
Q:1/4=110
M:none
K:Db
V:1 treble 
V:2 treble 
V:3 bass 
V:4 bass 
V:1
 D[A,E] | [DF]2 [A,D]2 [A,E]2 | [DF]2 D2 [A,E]2 | [A,F]2 [DG]2 [DA]2 | [DB]2 [DA]2 [FB][Fc] | %5
 [Fd]2 F2 [DB]2 | [DA]2 C2 [A,D]2 | [B,E]2 [B,E]2 [DF]2 | [CE]4 D[A,E] | [DF]2 D2 [B,E]2 | %10
 [CF]2 [F=A]2 [FB]2 | [Fc]2 [Fd]2 [Ge]2 | [Ge]2 [Fd]2 [Ac][GB] | [FA]2 [=EB]2 [Ed]2 | %14
 [Fd]2 D2 [DA]2 | [EG][DF] E3 D | !fermata!D4 |] %17
V:2
 x2 | x6 | x2 D2 x2 | x6 | x6 | x2 F2 x2 | x2 C2 x2 | x6 | x6 | x2 D2 x2 | x6 | x6 | x6 | x6 | %14
 x2 D2 x2 | x2 D2 CD | D4 |] %17
V:3
 [D,F,][D,G,] | [D,A,]2 [D,F,]2 [D,G,]2 | [D,A,]2 [B,,B,]2 [A,,C]2 | D2 [B,,G,]2 [A,,F,]2 | %4
 [G,,G,]2 [D,F,]2 [B,D][B,D] | [B,D]2 [A,C]2 [G,B,]2 | [F,D]2 [G,A,]2 [F,A,]2 | %7
 [E,A,]2 [E,=G,]2 [E,G,]2 | [A,,A,]4 [D,F,][D,G,] | A,2 [B,,B,]2 [G,B,]2 | [F,A,]2 [E,C]2 [D,D]2 | %11
 [C,=A,]2 [B,,B,]2 [=A,,C]2 | [B,,C]2 [B,,D]2 [G,D][G,D] | [A,E]2 [=G,D]2 [G,B,]2 | %14
 [A,,A,]2 [B,,F,]2 [F,,A,]2 | [G,,B,]2 E,F, [A,,G,]2 | !fermata![D,F,]4 |] %17
V:4
 x2 | x6 | x6 | (D,C,) x4 | x6 | x6 | x6 | x6 | x6 | (D,C,) x4 | x6 | x6 | x6 | A,,6- | x6 | %15
 x2 A,,2 x2 | x4 |] %17

